X:2
T:La nouvelle Anglaise (Kontratanz) F 2- (kt02305)
S:Hanny Christen. Bd.II  St. Gallen II, GraubÃ¼nden, Tessin. S.352 (kt02305) orig. G
S:KontratÃ¤nze, Ftan (1773-1778, 8. Jan. 1952). S.350-357.
S:Ãœberliefert durch Martin Peider Schmid von GrÃ¼neck
O:Switzerland
%%MIDI program 21
R:Kontratanz
M:2/4
L:1/8
K:Fmaj%%MIDI gchordon
"F"F2 Ac | "C7"BG EC | "F"F/2G/2A/2B/2 cf | "D7"c2A2 | "Gm"Bd/2B/2 "C7"GB | "F"Ac/2A/2 FA | "C7"GB A/2G/2F/2E/2 | "F"F2F2 || 
"Dm"fa/2f/2 "G7"df | "C"eg/2e/2 ce | "G7"df e/2d/2c/2=B/2 | "C"c2c2 | "Gm"Bd/2B/2 "C7"GB | "F"Ac/2A/2 FA | "C7"GB A/2G/2F/2E/2 | "F"F2F2 |] 
W:"Diese (Kontra-)TÃ¤nze gehÃ¶ren zum Repertoire der um 1765 in Frankreich beliebten TÃ¤nze 
W:und wurden vom Autor wahrscheinlich wÃ¤hrend seiner MilitÃ¤rzeit in Frankreich aufgeschrieben." Hrsg. S.350
% kt02305  
% Nov 16, 2016

